icon-themes/breeze_svg/cmd/lc_pagemargin.svg

<svg viewBox="0 0 24 24" xmlns="http://www.w3.org/2000/svg"><path d="m5 3v1 17h1 13v-18h-13zm1 1h12v16h-12z" fill="#4d4d4d"/><path d="m8 4v2h-2v1h2v10h-2v1h2v2h1v-2h6v2h1v-2h2v-1h-2v-10h2v-1h-2v-2h-1v2h-6v-2zm1 3h6v10h-6z" fill="#1d99f3"/></svg>

<svg xmlns="http://www.w3.org/2000/svg" viewBox="0 0 24 24">
 <path 
     style="fill:#4d4d4d" 
     d="M 5 3 L 5 4 L 5 21 L 6 21 L 19 21 L 19 3 L 6 3 L 5 3 z M 6 4 L 18 4 L 18 20 L 6 20 L 6 4 z "
     />
 <path 
     style="fill:#1d99f3" 
     d="M 8 4 L 8 6 L 6 6 L 6 7 L 8 7 L 8 17 L 6 17 L 6 18 L 8 18 L 8 20 L 9 20 L 9 18 L 15 18 L 15 20 L 16 20 L 16 18 L 18 18 L 18 17 L 16 17 L 16 7 L 18 7 L 18 6 L 16 6 L 16 4 L 15 4 L 15 6 L 9 6 L 9 4 L 8 4 z M 9 7 L 15 7 L 15 17 L 9 17 L 9 7 z "
     />
 </svg>
